img/svg/phone.svg

<?xml version="1.0" encoding="utf-8"?><!DOCTYPE svg PUBLIC "-//W3C//DTD SVG 1.1//EN" "http://www.w3.org/Graphics/SVG/1.1/DTD/svg11.dtd"><svg version="1.1" baseProfile="full" xmlns="http://www.w3.org/2000/svg" xmlns:xlink="http://www.w3.org/1999/xlink" xmlns:ev="http://www.w3.org/2001/xml-events"   height="21px"   width="21px" ><path fill="rgb( 0, 0, 0 )" d="M8.49800000000005,12.539 C10.293,14.324 12.371,16.03 13.186,15.206 C14.354,14.028 15.073,13.002 17.664,15.073 C20.255,17.145 18.276,18.54 17.146,19.682 C15.84,21 10.951,19.774 6.10599999999999,14.955 C1.25999999999999,10.135 0,5.245 1.30600000000004,3.927 C2.43799999999999,2.784 3.81399999999996,0.791 5.89999999999998,3.373 C7.98699999999997,5.954 6.96900000000005,6.682 5.80100000000004,7.861 C4.98599999999999,8.684 6.70299999999997,10.753 8.49800000000005,12.539 ZM11.101,4.021 C11.101,4.021 10.559,3.936 10.1799999999999,4.316 C9.78999999999996,4.707 9.77300000000002,5.381 10.184,5.793 C10.427,6.036 10.77,6.088 10.77,6.088 C11.438,6.214 12.444,6.426 13.516,7.5 C14.587,8.573 14.799,9.582 14.924,10.252 C14.924,10.252 14.976,10.595 15.2190000000001,10.839 C15.63,11.25 16.303,11.234 16.693,10.843 C17.072,10.463 16.987,9.92 16.987,9.92 C16.775,8.564 16.119,7.148 14.9930000000001,6.019 C13.867,4.891 12.454,4.234 11.101,4.021 ZM16.179,4.83 C18.143,6.799 18.98,9.032 18.708,10.842 C18.708,10.842 18.6130000000001,11.415 18.986,11.789 C19.407,12.21 20.073,12.186 20.467,11.792 C20.72,11.539 20.775,11.126 20.775,11.126 C21,9.562 20.717,6.416 17.657,3.35 C14.597,0.284 11.458,0 9.89700000000005,0.225 C9.89700000000005,0.225 9.48599999999999,0.28 9.23299999999995,0.534 C8.83900000000006,0.929 8.81500000000005,1.596 9.23599999999999,2.018 C9.60900000000004,2.392 10.181,2.297 10.181,2.297 C11.987,2.023 14.216,2.862 16.179,4.83 Z "/></svg>

<svg baseProfile="full" xmlns="http://www.w3.org/2000/svg" height="21" width="21"><path fill="rgb( 0, 0, 0 )" d="M8.498 12.539c1.795 1.785 3.873 3.491 4.688 2.667 1.168-1.178 1.887-2.204 4.478-.133 2.591 2.072.612 3.467-.518 4.609-1.306 1.318-6.195.092-11.04-4.727-4.846-4.82-6.106-9.71-4.8-11.028 1.132-1.143 2.508-3.136 4.594-.554 2.087 2.581 1.069 3.309-.099 4.488-.815.823.902 2.892 2.697 4.678zm2.603-8.518s-.542-.085-.921.295c-.39.391-.407 1.065.004 1.477.243.243.586.295.586.295.668.126 1.674.338 2.746 1.412 1.071 1.073 1.283 2.082 1.408 2.752 0 0 .052.343.295.587.411.411 1.084.395 1.474.004.379-.38.294-.923.294-.923-.212-1.356-.868-2.772-1.994-3.901-1.126-1.128-2.539-1.785-3.892-1.998zm5.078.809c1.964 1.969 2.801 4.202 2.529 6.012 0 0-.095.573.278.947.421.421 1.087.397 1.481.003.253-.253.308-.666.308-.666.225-1.564-.058-4.71-3.118-7.776s-6.199-3.35-7.76-3.125c0 0-.411.055-.664.309-.394.395-.418 1.062.003 1.484.373.374.945.279.945.279 1.806-.274 4.035.565 5.998 2.533z"/></svg>
